svg/contact/phone_off_line.svg

<?xml version="1.0" encoding="UTF-8"?>
<svg width="24px" height="24px" viewBox="0 0 24 24" version="1.1" xmlns="http://www.w3.org/2000/svg" xmlns:xlink="http://www.w3.org/1999/xlink">
    <title>phone_off_line</title>
    <g id="Icon" stroke="none" stroke-width="1" fill="none" fill-rule="evenodd">
        <g id="Contact" transform="translate(-96.000000, -96.000000)">
            <g id="phone_off_line" transform="translate(96.000000, 96.000000)">
                <path d="M24,0 L24,24 L0,24 L0,0 L24,0 Z M12.5935,23.2578 L12.5819,23.2595 L12.5109,23.295 L12.4919,23.2987 L12.4767,23.295 L12.4057,23.2595 C12.3958,23.2564 12.387,23.259 12.3821,23.2649 L12.378,23.2758 L12.3609,23.7031 L12.3659,23.7235 L12.3769,23.7357 L12.4805,23.8097 L12.4953,23.8136 L12.5071,23.8097 L12.6107,23.7357 L12.6233,23.7197 L12.6267,23.7031 L12.6096,23.2758 C12.6076,23.2657 12.601,23.2593 12.5935,23.2578 Z M12.8584,23.1453 L12.8445,23.1473 L12.6598,23.2397 L12.6499,23.2499 L12.6472,23.2611 L12.6651,23.6906 L12.6699,23.7034 L12.6784,23.7105 L12.8793,23.8032 C12.8914,23.8069 12.9022,23.803 12.9078,23.7952 L12.9118,23.7812 L12.8777,23.1665 C12.8753,23.1546 12.8674,23.147 12.8584,23.1453 Z M12.143,23.1473 C12.1332,23.1424 12.1222,23.1453 12.1156,23.1526 L12.1099,23.1665 L12.0758,23.7812 C12.0751,23.7927 12.0828,23.8019 12.0926,23.8046 L12.1083,23.8032 L12.3092,23.7105 L12.3186,23.7024 L12.3225,23.6906 L12.3404,23.2611 L12.3372,23.2485 L12.3278,23.2397 L12.143,23.1473 Z" id="MingCute" fill-rule="nonzero"></path>
                <path d="M17.2172,13.4786 L18.2171889,14.1717134 C19.3730222,14.9842667 20.5816333,15.91035 21.5208,17.1131 C21.8624,17.5506 21.9132,18.1226 21.7094,18.598 C21.0211143,20.2039048 19.6555497,21.4154331 17.9895985,21.911583 L17.6636,21.9991 C17.3431,22.0792 16.9645,22.1475 16.5522,22.1324 L16.3351735,22.1214223 L16.3351735,22.1214223 L15.9490916,22.088458 C15.9023096,22.0834966 15.8542633,22.0780625 15.8049831,22.072116 L15.4947387,22.0299696 C15.4406447,22.0218143 15.3853777,22.013067 15.328968,22.003688 L14.9770417,21.9395147 C14.8553246,21.9153845 14.7292804,21.8884092 14.5991522,21.8582706 L14.1967593,21.7580469 C12.6091535,21.3350393 10.5136289,20.4516132 8.28022,18.6239 L9.70243,17.2017 C11.7312511,18.82266 13.587385,19.551124 14.9110895,19.8769124 L15.2586288,19.9561481 L15.2586288,19.9561481 L15.5781449,20.0176245 C15.6289722,20.0265133 15.6785644,20.0347541 15.7268875,20.042393 L16.0013283,20.0813704 L16.0013283,20.0813704 L16.2436918,20.1081087 L16.2436918,20.1081087 L16.5435446,20.1300978 C16.5724464,20.1315632 16.5998429,20.1327486 16.6257,20.1337 C16.73895,20.1379 16.8659813,20.1255062 17.0179313,20.0951687 L17.2525,20.0403 C18.325,19.7722 19.2265,19.0599 19.7375,18.0904 C19.02582,17.2552 18.141852,16.569888 17.1665944,15.8796352 L16.4193,15.3586 L16.4193,15.3586 L15.1074,16.6705 C14.7092,17.0687 14.0911,17.2314 13.5184,16.9998 L13.2773724,16.8986562 L13.2773724,16.8986562 L12.9814125,16.7650801 L12.9814125,16.7650801 L12.6381582,16.5978396 C12.2130769,16.3826089 11.7070308,16.0961308 11.1746,15.7296 L12.6174,14.2868 C13.1301,14.6135 13.5986,14.8501 13.9433,15.0061 L15.2991,13.6504 C15.8148,13.1347 16.6227,13.0667 17.2172,13.4786 Z M5.41197,2.28593 C5.86804,2.09047 6.42042,2.12624 6.8571,2.44477 C7.96626154,3.25383154 8.83820414,4.35101734 9.58511261,5.41076982 L10.0191511,6.03952485 L10.0191511,6.03952485 L10.5264,6.78718 L10.5264,6.78718 C10.9051467,7.340712 10.872032,8.07844916 10.4470567,8.59324691 L10.35,8.7 L8.9936,10.0564 C9.18401778,10.4769333 9.49424198,11.0818025 9.94186601,11.726327 L10.1162,11.9696 L16.0104,6.07536 C16.4009,5.68484 17.0341,5.68484 17.4246,6.07536 C17.7851538,6.43584923 17.8128888,7.00307645 17.5078047,7.39537152 L17.4246,7.48958 L3.98961,20.9246 C3.59908,21.3151 2.96592,21.3151 2.57539,20.9246 C2.21491,20.5641385 2.18718077,19.9968793 2.49220231,19.6046027 L2.57539,19.5104 L5.83047,16.2553 C3.78832119,13.9328595 2.79047156,11.7256118 2.30694113,10.0389004 L2.20049741,9.64429145 L2.20049741,9.64429145 L2.11217544,9.27091635 L2.11217544,9.27091635 L2.04034714,8.92002028 L2.04034714,8.92002028 L1.9833844,8.59284844 C1.97503896,8.540366 1.96724507,8.48892396 1.95996883,8.43854825 L1.92225175,8.14929755 L1.92225175,8.14929755 L1.89532998,7.88688413 L1.89532998,7.88688413 L1.87757543,7.65255321 L1.87757543,7.65255321 L1.86736,7.44755 L1.86736,7.44755 C1.855216,7.117678 1.8965312,6.8093996 1.9545696,6.535182 L2.01643,6.27301 C2.46308,4.48641 3.71929,3.01136 5.41197,2.28593 Z M5.9285,4.25308 C5.01341333,4.73178667 4.32462391,5.55594116 4.01679577,6.54392725 L3.94095,6.82117 C3.88436,7.04752 3.86045,7.22303 3.86601,7.374 L3.88084429,7.6309369 L3.88084429,7.6309369 L3.91334576,7.95779457 L3.91334576,7.95779457 L3.94795566,8.21224776 L3.94795566,8.21224776 L3.99510837,8.49433162 C4.00411663,8.54357159 4.01372569,8.59390543 4.02397463,8.6453044 L4.09345963,8.96625037 C4.10642447,9.0217951 4.12010738,9.07834756 4.13454744,9.13587903 L4.23058639,9.4925864 L4.23058639,9.4925864 L4.34667333,9.87141209 C4.79025065,11.2344013 5.63668692,12.9784923 7.24799,14.8378 L8.68891,13.3969 C8.27870562,12.8705438 7.94627727,12.3508293 7.68365788,11.8871299 L7.4754658,11.5045428 C7.44355452,11.4434484 7.41302146,11.3837852 7.3838434,11.3256969 L7.22484906,10.9972188 L7.22484906,10.9972188 L7.04489323,10.5904908 C7.02868437,10.5517512 7.01371437,10.5153063 6.99996,10.4813 C6.76833,9.90862 6.93104,9.29052 7.32923,8.89232 L8.64442,7.57713 L8.58268,7.4863 C7.72933,6.23078 6.94593,5.0782 5.9285,4.25308 Z" id="形状" fill="#09244B"></path>
            </g>
        </g>
    </g>
</svg>

<svg xmlns="http://www.w3.org/2000/svg" width="24" height="24"><g fill="none" fill-rule="evenodd"><path d="M24 0v24H0V0h24ZM12.594 23.258l-.012.002-.071.035-.02.004-.014-.004-.071-.036c-.01-.003-.019 0-.024.006l-.004.01-.017.428.005.02.01.013.104.074.015.004.012-.004.104-.074.012-.016.004-.017-.017-.427c-.002-.01-.009-.017-.016-.018Zm.264-.113-.014.002-.184.093-.01.01-.003.011.018.43.005.012.008.008.201.092c.012.004.023 0 .029-.008l.004-.014-.034-.614c-.003-.012-.01-.02-.02-.022Zm-.715.002a.023.023 0 0 0-.027.006l-.006.014-.034.614c0 .012.007.02.017.024l.015-.002.201-.093.01-.008.003-.011.018-.43-.003-.012-.01-.01-.184-.092Z"/><path fill="#09244B" d="m17.217 13.479 1 .693c1.156.812 2.365 1.738 3.304 2.941a1.47 1.47 0 0 1 .188 1.485 5.87 5.87 0 0 1-3.72 3.314l-.325.087c-.32.08-.7.149-1.112.133l-.217-.01-.386-.034-.144-.016-.31-.042-.166-.026-.352-.064a12.125 12.125 0 0 1-.378-.082l-.402-.1c-1.588-.423-3.683-1.306-5.917-3.134l1.422-1.422c2.03 1.62 3.885 2.35 5.21 2.675l.347.08.32.06c.05.01.1.018.148.025l.274.04.243.026.3.022.082.004c.113.004.24-.008.392-.039l.235-.055a3.87 3.87 0 0 0 2.485-1.95c-.712-.835-1.596-1.52-2.571-2.21l-.748-.521-1.312 1.312a1.468 1.468 0 0 1-1.589.329l-.24-.101-.297-.134-.343-.167a12.753 12.753 0 0 1-1.463-.868l1.442-1.443c.513.326.982.563 1.326.72L15.3 13.65a1.502 1.502 0 0 1 1.918-.171ZM5.412 2.286a1.47 1.47 0 0 1 1.445.159c1.11.809 1.981 1.906 2.728 2.966l.434.629.507.747a1.505 1.505 0 0 1-.079 1.806l-.097.107-1.356 1.356c.19.42.5 1.026.948 1.67l.174.244 5.894-5.895a1 1 0 0 1 1.498 1.32l-.083.095L3.99 20.925a1 1 0 0 1-1.498-1.32l.083-.095 3.255-3.255c-2.042-2.322-3.04-4.53-3.523-6.216L2.2 9.644l-.088-.373-.072-.351-.057-.327a10.955 10.955 0 0 1-.023-.154l-.038-.29-.027-.262-.017-.234-.01-.205c-.013-.33.029-.639.087-.913l.061-.262a5.893 5.893 0 0 1 3.396-3.987Zm.516 1.967a3.893 3.893 0 0 0-1.911 2.29l-.076.278a2 2 0 0 0-.075.553l.015.257.032.327.035.254.047.282.029.151.07.321c.012.056.026.112.04.17l.097.357.116.378c.443 1.363 1.29 3.107 2.901 4.967l1.44-1.441a12.423 12.423 0 0 1-1.004-1.51l-.209-.382-.091-.18-.16-.328-.18-.407A9.907 9.907 0 0 1 7 10.481a1.468 1.468 0 0 1 .33-1.589l1.314-1.315-.061-.09C7.729 6.23 6.946 5.077 5.928 4.252Z"/></g></svg>
